X: 41246
T: Trumpet, The
R: hornpipe
M: 4/4
K: Gmajor
|:(3GGG G2 (3GGG G2|(3GGG Bd gdBG|(3DDD D2 (3DDD D2|(3DDD AB cAFA|
(3GGG G2 (3GGG G2|(3GGG Bd g4|fagf egfe|1 d2de dcBA:|2 d2de dcBc||
|:(3ddd d2 (3ddd d2|efgf edcB|cded cBAG|FGAG FDEF|
(3GGG G2 (3=FFF F2|(3EEE E2 (3_EEE E2|D2de dcBA|1 (3GGG BA FG3:|2 (3GFG AG FG3||

